assets/img/braze_icons/play.svg

<svg fill="none" height="24" viewBox="0 0 24 24" width="24" xmlns="http://www.w3.org/2000/svg"><path clip-rule="evenodd" d="m8.00625 2.80243c.01195.00797.02394.01596.03597.02399l10.54878 7.03248c.3052.2034.5882.3921.8055.5674.2269.1829.4943.4366.6482.8077.2034.4905.2034 1.0418 0 1.5323-.1539.3711-.4213.6247-.6482.8077-.2173.1753-.5003.3639-.8055.5673l-10.58472 7.0565c-.37309.2487-.70856.4724-.99323.6267-.28487.1544-.67588.3308-1.13225.3035-.58375-.0348-1.12301-.3234-1.47582-.7898-.27582-.3646-.34593-.7878-.37549-1.1104-.02955-.3225-.02952-.7257-.02949-1.1741v-14.06395c0-.01446 0-.02888 0-.04325-.00003-.44839-.00006-.85159.02949-1.17401.02956-.32266.09967-.74586.37549-1.11047.35281-.46637.89207-.75497 1.47582-.78983.45637-.02725.84738.14916 1.13225.30354.28466.15427.62012.37795.9932.6267z" fill="#801ed7" fill-rule="evenodd"/></svg>

<svg width="24" height="24" viewBox="0 0 24 24" fill="none" xmlns="http://www.w3.org/2000/svg">
<path fill-rule="evenodd" clip-rule="evenodd" d="M8.00625 2.80243C8.0182 2.8104 8.03019 2.81839 8.04222 2.82642L18.591 9.8589C18.8962 10.0623 19.1792 10.251 19.3965 10.4263C19.6234 10.6092 19.8908 10.8629 20.0447 11.234C20.2481 11.7245 20.2481 12.2758 20.0447 12.7663C19.8908 13.1374 19.6234 13.391 19.3965 13.574C19.1792 13.7493 18.8962 13.9379 18.591 14.1413L8.00628 21.1978C7.63319 21.4465 7.29772 21.6702 7.01305 21.8245C6.72818 21.9789 6.33717 22.1553 5.8808 22.128C5.29705 22.0932 4.75779 21.8046 4.40498 21.3382C4.12916 20.9736 4.05905 20.5504 4.02949 20.2278C3.99994 19.9053 3.99997 19.5021 4 19.0537L4 4.98975C4 4.97529 4 4.96087 4 4.9465C3.99997 4.49811 3.99994 4.09491 4.02949 3.77249C4.05905 3.44983 4.12916 3.02663 4.40498 2.66202C4.75779 2.19565 5.29705 1.90705 5.8808 1.87219C6.33717 1.84494 6.72818 2.02135 7.01305 2.17573C7.29771 2.33 7.63317 2.55368 8.00625 2.80243Z" fill="#801ED7"/>
</svg>
